material/.icons/material/reddit.svg

<svg xmlns="http://www.w3.org/2000/svg" viewBox="0 0 24 24"><path d="M14.5 15.41c.08.09.08.28 0 .39-.73.7-2.09.76-2.5.76-.39 0-1.75-.06-2.46-.76-.1-.11-.1-.3 0-.39.11-.1.28-.1.38 0 .46.46 1.41.59 2.08.59.69 0 1.66-.13 2.1-.59.11-.1.28-.1.4 0m-3.75-2.37c0-.57-.47-1.04-1.04-1.04-.57 0-1.04.47-1.04 1.04 0 .57.47 1.05 1.04 1.04.57 0 1.04-.47 1.04-1.04M14.29 12c-.57 0-1.04.5-1.04 1.05s.47 1.04 1.04 1.04c.57 0 1.04-.48 1.04-1.04 0-.55-.47-1.05-1.04-1.05M22 12c0 5.5-4.5 10-10 10S2 17.5 2 12 6.5 2 12 2s10 4.5 10 10m-3.33 0c0-.81-.67-1.46-1.45-1.46-.4 0-.76.16-1.02.41-1-.72-2.37-1.18-3.9-1.24l.67-3.13 2.17.47c.02.55.48.99 1.04.99.57 0 1.04-.47 1.04-1.04 0-.57-.47-1.04-1.04-1.04-.41 0-.77.24-.93.59l-2.43-.52c-.07-.03-.14 0-.19.04-.06.04-.09.1-.1.17l-.74 3.48c-1.55.05-2.95.51-3.97 1.24-.26-.25-.62-.4-1.01-.4-.81 0-1.46.65-1.46 1.44 0 .61.36 1.11.86 1.34-.02.16-.03.28-.03.44 0 2.22 2.61 4.07 5.82 4.07 3.23 0 5.85-1.82 5.85-4.07 0-.14-.01-.28-.04-.44.5-.23.86-.74.86-1.34z"/></svg>

<?xml version="1.0" encoding="UTF-8"?><!DOCTYPE svg PUBLIC "-//W3C//DTD SVG 1.1//EN" "http://www.w3.org/Graphics/SVG/1.1/DTD/svg11.dtd"><svg xmlns="http://www.w3.org/2000/svg" xmlns:xlink="http://www.w3.org/1999/xlink" version="1.1" id="mdi-reddit" width="24" height="24" viewBox="0 0 24 24"><path d="M14.5 15.41C14.58 15.5 14.58 15.69 14.5 15.8C13.77 16.5 12.41 16.56 12 16.56C11.61 16.56 10.25 16.5 9.54 15.8C9.44 15.69 9.44 15.5 9.54 15.41C9.65 15.31 9.82 15.31 9.92 15.41C10.38 15.87 11.33 16 12 16C12.69 16 13.66 15.87 14.1 15.41C14.21 15.31 14.38 15.31 14.5 15.41M10.75 13.04C10.75 12.47 10.28 12 9.71 12C9.14 12 8.67 12.47 8.67 13.04C8.67 13.61 9.14 14.09 9.71 14.08C10.28 14.08 10.75 13.61 10.75 13.04M14.29 12C13.72 12 13.25 12.5 13.25 13.05S13.72 14.09 14.29 14.09C14.86 14.09 15.33 13.61 15.33 13.05C15.33 12.5 14.86 12 14.29 12M22 12C22 17.5 17.5 22 12 22S2 17.5 2 12C2 6.5 6.5 2 12 2S22 6.5 22 12M18.67 12C18.67 11.19 18 10.54 17.22 10.54C16.82 10.54 16.46 10.7 16.2 10.95C15.2 10.23 13.83 9.77 12.3 9.71L12.97 6.58L15.14 7.05C15.16 7.6 15.62 8.04 16.18 8.04C16.75 8.04 17.22 7.57 17.22 7C17.22 6.43 16.75 5.96 16.18 5.96C15.77 5.96 15.41 6.2 15.25 6.55L12.82 6.03C12.75 6 12.68 6.03 12.63 6.07C12.57 6.11 12.54 6.17 12.53 6.24L11.79 9.72C10.24 9.77 8.84 10.23 7.82 10.96C7.56 10.71 7.2 10.56 6.81 10.56C6 10.56 5.35 11.21 5.35 12C5.35 12.61 5.71 13.11 6.21 13.34C6.19 13.5 6.18 13.62 6.18 13.78C6.18 16 8.79 17.85 12 17.85C15.23 17.85 17.85 16.03 17.85 13.78C17.85 13.64 17.84 13.5 17.81 13.34C18.31 13.11 18.67 12.6 18.67 12Z" /></svg>
